X:1
T:Grondeuse de Québec
M:3/4
L:1/8
R:Reel
S:Fiddler Pascal Gemme (of the group Genticorum)  http://tradquebec.over-blog.com/archive-4-2007.html
K:D
AA/B/||A/G/F/D/ E/D/C/D/ EA/B/|A/G/F/D/ E/D/C/E/ DA/B/|
A/G/F/D/ E/D/C/D/ EA/B/|A/G/F/D/ E/D/C/E/ DD/E/||
M:2/4
L:1/8
|:F>F E>G|F/D/F/D/ EE/G/|F/D/F/D/ EE/F/|E/D/C/E/ DD/E/:|
|:A/B/c/d/ ee/f/|e/d/c/B/ AA/A/|A/B/c/d/ e/A/e/f/|
|1 g/e/a/g/ f/d/d:|2\
M:3/4
L:1/8
g/e/a/g/ f/d/d AA/B/||

